packages/icon/src/svg/trash.icon.svg

<?xml version="1.0" encoding="UTF-8"?>
<svg width="24px" height="24px" viewBox="0 0 24 24" version="1.1" xmlns="http://www.w3.org/2000/svg" xmlns:xlink="http://www.w3.org/1999/xlink">
    <!-- Generator: Sketch 46.1 (44463) - http://www.bohemiancoding.com/sketch -->
    <title>Icon/trash.icon</title>
    <desc>Created with Sketch.</desc>
    <defs>
        <path d="M9.0003,2.0003 L14.9993,2.0003 L14.9993,4.0003 L9.0003,4.0003 L9.0003,2.0003 Z M3,7 L3,5 L21,5 L21,7 L3,7 Z M5,7 L19,7 L18.5,22 L5.5,22 L5,7 Z M7,7 L7.5,20 L16.5,20 L17,7 L7,7 Z M9,9 L11,9 L11,18 L9,18 L9,9 Z M13,9 L15,9 L15,18 L13,18 L13,9 Z" id="path-1"></path>
    </defs>
    <g id="Symbols" stroke="none" stroke-width="1" fill="none" fill-rule="evenodd">
        <g id="Icon/trash">
            <mask id="mask-2" fill="white">
                <use xlink:href="#path-1"></use>
            </mask>
            <use id="Combined-Shape" fill="#000000" xlink:href="#path-1"></use>
            <g id="Color/Neutral/White" mask="url(#mask-2)" fill="#FFFFFF">
                <rect id="222222-Fill" x="0" y="0" width="24" height="24"></rect>
            </g>
        </g>
    </g>
</svg>

<svg viewBox="0 0 24 24" xmlns="http://www.w3.org/2000/svg"><path d="M9.0003 2.0003h5.999v2h-5.999v-2zM3 7V5h18v2H3zm2 0h14l-.5 15h-13L5 7zm2 0l.5 13h9L17 7H7zm2 2h2v9H9V9zm4 0h2v9h-2V9z" /></svg>
